dist/assets/images/index/list-2.svg

<svg width="53" height="53" viewBox="0 0 53 53" fill="none" xmlns="http://www.w3.org/2000/svg">
<circle cx="26.5" cy="26.5" r="26.5" fill="white"/>
<mask id="path-2-inside-1" fill="white">
<path fill-rule="evenodd" clip-rule="evenodd" d="M22.3982 23.7085C23.5629 24.8733 25.4513 24.8733 26.616 23.7085C26.616 23.7085 26.616 23.7085 26.6161 23.7085L31.3613 28.4537L21.3439 38.471L16.0716 38.471L7.63598 30.0354L7.63598 24.7631L17.6533 14.7457L22.3982 19.4906C22.3982 19.4907 22.3982 19.4907 22.3982 19.4907C21.2335 20.6554 21.2335 22.5438 22.3982 23.7085Z"/>
</mask>
<path d="M26.6161 23.7085L27.6767 22.6478L26.6161 21.5872L25.5554 22.6478L26.6161 23.7085ZM31.3613 28.4537L32.4219 29.5143L33.4826 28.4537L32.4219 27.393L31.3613 28.4537ZM21.3439 38.471L21.3439 39.971H21.9652L22.4046 39.5317L21.3439 38.471ZM16.0716 38.471L15.011 39.5317L15.4503 39.971L16.0716 39.971V38.471ZM7.63598 30.0354L6.13598 30.0354L6.13598 30.6567L6.57532 31.096L7.63598 30.0354ZM7.63598 24.7631L6.57532 23.7024L6.13598 24.1418L6.13598 24.7631L7.63598 24.7631ZM17.6533 14.7457L18.714 13.6851L17.6533 12.6244L16.5927 13.6851L17.6533 14.7457ZM22.3982 19.4906L23.4589 20.5513L24.5196 19.4906L23.4589 18.43L22.3982 19.4906ZM25.5553 22.6479C24.9764 23.2268 24.0378 23.2268 23.4588 22.6479L21.3375 24.7692C23.088 26.5197 25.9262 26.5197 27.6767 24.7692L25.5553 22.6479ZM25.5554 22.6478C25.5554 22.6478 25.5554 22.6478 25.5554 22.6478C25.5554 22.6479 25.5554 22.6479 25.5553 22.6479L27.6767 24.7692C27.6767 24.7692 27.6767 24.7692 27.6767 24.7692C27.6767 24.7692 27.6767 24.7691 27.6767 24.7691L25.5554 22.6478ZM25.5554 24.7691L30.3006 29.5143L32.4219 27.393L27.6767 22.6478L25.5554 24.7691ZM30.3006 27.393L20.2833 37.4104L22.4046 39.5317L32.4219 29.5143L30.3006 27.393ZM21.3439 36.971L16.0716 36.971L16.0716 39.971H21.3439L21.3439 36.971ZM17.1323 37.4104L8.69664 28.9747L6.57532 31.096L15.011 39.5317L17.1323 37.4104ZM9.13598 30.0354L9.13598 24.7631L6.13598 24.7631L6.13598 30.0354L9.13598 30.0354ZM8.69664 25.8237L18.714 15.8064L16.5927 13.6851L6.57532 23.7024L8.69664 25.8237ZM16.5927 15.8064L21.3376 20.5513L23.4589 18.43L18.714 13.6851L16.5927 15.8064ZM23.4588 20.5514C23.4588 20.5514 23.4589 20.5513 23.4589 20.5513C23.4589 20.5513 23.4589 20.5513 23.4589 20.5513L21.3376 18.43C21.3376 18.43 21.3376 18.43 21.3375 18.43C21.3375 18.43 21.3375 18.43 21.3375 18.43L23.4588 20.5514ZM23.4588 22.6479C22.8799 22.0689 22.8799 21.1303 23.4588 20.5514L21.3375 18.43C19.587 20.1806 19.587 23.0187 21.3375 24.7692L23.4588 22.6479Z" fill="#DF0112" mask="url(#path-2-inside-1)"/>
<circle cx="24.5088" cy="21.5988" r="1.48684" transform="rotate(45 24.5088 21.5988)" stroke="#0000FF" stroke-width="1.5"/>
<path fill-rule="evenodd" clip-rule="evenodd" d="M19.2388 11.4142L34.6959 26.8713L33.4739 28.0932L27.4554 22.0747C27.3972 22.4364 27.2723 22.7895 27.0806 23.1141L32.7668 28.8004L33.4739 29.5075L34.1811 28.8004L35.403 27.5784L36.1101 26.8713L35.403 26.1642L19.9459 10.7071L19.2388 10L18.5317 10.7071L17.3097 11.929L16.6026 12.6361L17.3097 13.3433L22.9956 19.0291C23.3202 18.8374 23.6733 18.7125 24.035 18.6543L18.0168 12.6361L19.2388 11.4142Z" fill="#DF0112"/>
<path d="M34.6959 26.8713L34.8373 27.0127L34.9787 26.8713L34.8373 26.7299L34.6959 26.8713ZM19.2388 11.4142L19.3802 11.2728L19.2388 11.1314L19.0973 11.2728L19.2388 11.4142ZM33.4739 28.0932L33.3325 28.2347L33.4739 28.3761L33.6154 28.2347L33.4739 28.0932ZM27.4554 22.0747L27.5968 21.9333L27.32 21.6565L27.2579 22.0429L27.4554 22.0747ZM27.0806 23.1141L26.9084 23.0124L26.8295 23.1459L26.9392 23.2555L27.0806 23.1141ZM33.4739 29.5075L33.3325 29.6489L33.4739 29.7903L33.6154 29.6489L33.4739 29.5075ZM34.1811 28.8004L34.3225 28.9418L34.1811 28.8004ZM35.403 27.5784L35.2616 27.437L35.403 27.5784ZM36.1101 26.8713L36.2515 27.0127L36.3929 26.8713L36.2515 26.7299L36.1101 26.8713ZM19.2388 10L19.3802 9.85858L19.2388 9.71716L19.0973 9.85858L19.2388 10ZM18.5317 10.7071L18.6731 10.8485L18.5317 10.7071ZM17.3097 11.929L17.1683 11.7876L17.3097 11.929ZM16.6026 12.6361L16.4612 12.4947L16.3198 12.6361L16.4612 12.7776L16.6026 12.6361ZM17.3097 13.3433L17.1683 13.4847L17.3097 13.3433ZM22.9956 19.0291L22.8542 19.1706L22.9638 19.2802L23.0973 19.2013L22.9956 19.0291ZM24.035 18.6543L24.0668 18.8518L24.4532 18.7897L24.1765 18.5129L24.035 18.6543ZM18.0168 12.6361L17.8754 12.4947L17.734 12.6361L17.8754 12.7776L18.0168 12.6361ZM34.8373 26.7299L19.3802 11.2728L19.0973 11.5556L34.5545 27.0127L34.8373 26.7299ZM33.6154 28.2347L34.8373 27.0127L34.5545 26.7299L33.3325 27.9518L33.6154 28.2347ZM27.314 22.2161L33.3325 28.2347L33.6154 27.9518L27.5968 21.9333L27.314 22.2161ZM27.2579 22.0429C27.2036 22.3805 27.0871 22.7098 26.9084 23.0124L27.2528 23.2158C27.4575 22.8693 27.5908 22.4924 27.6528 22.1064L27.2579 22.0429ZM26.9392 23.2555L32.6254 28.9418L32.9083 28.6589L27.222 22.9727L26.9392 23.2555ZM32.6254 28.9418L33.3325 29.6489L33.6154 29.366L32.9083 28.6589L32.6254 28.9418ZM33.6154 29.6489L34.3225 28.9418L34.0396 28.6589L33.3325 29.366L33.6154 29.6489ZM34.3225 28.9418L35.5444 27.7198L35.2616 27.437L34.0396 28.6589L34.3225 28.9418ZM35.5444 27.7198L36.2515 27.0127L35.9687 26.7299L35.2616 27.437L35.5444 27.7198ZM36.2515 26.7299L35.5444 26.0228L35.2616 26.3056L35.9687 27.0127L36.2515 26.7299ZM35.5444 26.0228L20.0873 10.5657L19.8045 10.8485L35.2616 26.3056L35.5444 26.0228ZM20.0873 10.5657L19.3802 9.85858L19.0973 10.1414L19.8045 10.8485L20.0873 10.5657ZM19.0973 9.85858L18.3902 10.5657L18.6731 10.8485L19.3802 10.1414L19.0973 9.85858ZM18.3902 10.5657L17.1683 11.7876L17.4512 12.0705L18.6731 10.8485L18.3902 10.5657ZM17.1683 11.7876L16.4612 12.4947L16.744 12.7776L17.4512 12.0705L17.1683 11.7876ZM16.4612 12.7776L17.1683 13.4847L17.4512 13.2018L16.744 12.4947L16.4612 12.7776ZM17.1683 13.4847L22.8542 19.1706L23.137 18.8877L17.4512 13.2018L17.1683 13.4847ZM23.0973 19.2013C23.3999 19.0226 23.7292 18.9061 24.0668 18.8518L24.0033 18.4569C23.6174 18.5189 23.2405 18.6522 22.8939 18.8569L23.0973 19.2013ZM17.8754 12.7776L23.8936 18.7958L24.1765 18.5129L18.1583 12.4947L17.8754 12.7776ZM19.0973 11.2728L17.8754 12.4947L18.1583 12.7776L19.3802 11.5556L19.0973 11.2728Z" fill="#DF0112"/>
<path d="M37.4373 25.658L32.5908 20.8115C32.5908 20.8115 36.6917 20.0658 40.047 24.9124C43.4022 29.759 42.6566 37.9606 42.6566 37.9606H37.4373V25.658Z" stroke="#0000FF" stroke-width="1.5"/>
</svg>

<svg width="53" height="53" fill="none" xmlns="http://www.w3.org/2000/svg"><circle cx="26.5" cy="26.5" r="26.5" fill="#fff"/><mask id="a" fill="#fff"><path fill-rule="evenodd" clip-rule="evenodd" d="M22.398 23.709a2.982 2.982 0 004.218 0l4.745 4.745L21.344 38.47h-5.272l-8.436-8.436v-5.272l10.017-10.017 4.745 4.745a2.982 2.982 0 000 4.218z"/></mask><path d="M26.616 23.709l1.06-1.061-1.06-1.06-1.06 1.06 1.06 1.06zm4.745 4.745l1.06 1.06 1.062-1.06-1.061-1.061-1.06 1.06zM21.344 38.47v1.5h.621l.44-.44-1.061-1.06zm-5.272 0l-1.061 1.06.44.44h.62v-1.5zm-8.436-8.436h-1.5v.622l.44.439 1.06-1.06zm0-5.272l-1.06-1.06-.44.439v.621h1.5zm10.017-10.017l1.061-1.06-1.06-1.062-1.061 1.061 1.06 1.06zm4.745 4.745l1.06 1.06 1.062-1.06-1.061-1.061-1.06 1.06zm3.157 3.157a1.483 1.483 0 01-2.096 0l-2.122 2.121a4.483 4.483 0 006.34 0l-2.122-2.121zm0 0l2.122 2.121-2.122-2.121zm0 2.121l4.746 4.745 2.12-2.121-4.744-4.745-2.122 2.121zm4.746 2.624L20.283 37.41l2.122 2.122 10.017-10.018-2.121-2.121zm-8.957 9.578h-5.272v3h5.272v-3zm-4.212.44l-8.435-8.436-2.122 2.121 8.436 8.436 2.121-2.122zm-7.996-7.376v-5.272h-3v5.272h3zm-.44-4.211l10.018-10.018-2.121-2.12L6.575 23.701l2.122 2.122zm7.897-10.018l4.745 4.745 2.12-2.121-4.744-4.745-2.121 2.121zm6.866 4.745l-2.121-2.121 2.12 2.121zm0 2.097a1.483 1.483 0 010-2.097l-2.122-2.121a4.483 4.483 0 000 6.34l2.122-2.122z" fill="#DF0112" mask="url(#a)"/><circle cx="24.509" cy="21.599" r="1.487" transform="rotate(45 24.509 21.599)" stroke="#00F" stroke-width="1.5"/><path fill-rule="evenodd" clip-rule="evenodd" d="M19.239 11.414l15.457 15.457-1.222 1.222-6.019-6.018a2.971 2.971 0 01-.374 1.04l5.686 5.685.707.707.707-.707 1.222-1.222.707-.707-.707-.707-15.457-15.457-.707-.707-.707.707-1.222 1.222-.707.707.707.707 5.686 5.686a2.971 2.971 0 011.039-.375l-6.018-6.018 1.222-1.222z" fill="#DF0112"/><path d="M34.696 26.871l.141.142.142-.142-.142-.141-.141.141zM19.239 11.414l.141-.141-.141-.142-.142.142.142.141zm14.235 16.68l-.141.14.14.142.142-.141-.141-.142zm-6.019-6.02l.142-.14-.277-.277-.062.386.197.032zm-.374 1.04l-.173-.102-.079.134.11.11.142-.142zm6.393 6.393l-.141.142.14.141.142-.141-.141-.142zm.707-.707l.142.142-.142-.142zm1.222-1.222l-.141-.141.141.141zm.707-.707l.142.142.14-.142-.14-.141-.142.141zM19.24 10l.141-.141-.141-.142-.142.142.142.141zm-.707.707l.141.141-.141-.14zM17.31 11.93l-.142-.141.142.141zm-.707.707l-.142-.141-.141.141.141.142.142-.142zm.707.707l-.142.142.142-.142zm5.686 5.686l-.142.142.11.11.133-.08-.101-.172zm1.039-.375l.032.198.386-.062-.276-.277-.142.141zm-6.018-6.018l-.142-.141-.141.141.141.142.142-.142zm16.82 14.094L19.38 11.273l-.283.283 15.457 15.457.283-.283zm-1.222 1.505l1.222-1.222-.283-.283-1.221 1.222.282.283zm-6.301-6.019l6.019 6.019.282-.283-6.018-6.019-.283.283zm-.056-.173a2.77 2.77 0 01-.35.97l.345.203c.204-.347.338-.724.4-1.11l-.395-.063zm-.319 1.213l5.686 5.686.283-.283-5.686-5.686-.283.283zm5.686 5.686l.708.707.282-.283-.707-.707-.283.283zm.99.707l.707-.707-.282-.283-.707.707.282.283zm.707-.707l1.222-1.222-.282-.283-1.222 1.222.282.283zm1.222-1.222l.708-.707-.283-.283-.707.707.282.283zm.708-.99l-.708-.707-.282.283.707.707.282-.283zm-.708-.707L20.087 10.566l-.282.282 15.457 15.458.282-.283zM20.087 10.566l-.707-.707-.283.282.707.707.283-.282zm-.99-.707l-.707.707.283.282.707-.707-.283-.282zm-.707.707l-1.222 1.222.283.282 1.222-1.222-.283-.282zm-1.222 1.222l-.707.707.283.283.707-.708-.283-.282zm-.707.99l.707.707.283-.283-.707-.707-.283.283zm.707.707l5.686 5.686.283-.283-5.686-5.686-.283.283zm5.93 5.716a2.77 2.77 0 01.969-.35l-.064-.394a3.169 3.169 0 00-1.11.4l.204.344zm-5.223-6.423l6.019 6.018.283-.283-6.019-6.018-.283.283zm1.222-1.505l-1.222 1.222.283.283 1.222-1.222-.283-.283z" fill="#DF0112"/><path d="M37.437 25.658l-4.846-4.847s4.1-.745 7.456 4.101c3.355 4.847 2.61 13.049 2.61 13.049h-5.22V25.658z" stroke="#00F" stroke-width="1.5"/></svg>
